Newaita-dark/apps/48/firefox-new.svg

<svg height="48pt" viewBox="0 0 48 48" width="48pt" xmlns="http://www.w3.org/2000/svg" xmlns:xlink="http://www.w3.org/1999/xlink"><linearGradient id="a"><stop offset="0" stop-opacity=".313725"/><stop offset=".222222" stop-opacity=".27451"/><stop offset="1" stop-opacity="0"/></linearGradient><radialGradient id="b" cx="450.908936" cy="189.579361" gradientTransform="matrix(.0000002 -.117199 -.158218 -.00000015 53.437513 95.392994)" gradientUnits="userSpaceOnUse" r="21.166656" xlink:href="#a"/><radialGradient id="c" cx="450.908936" cy="189.579361" gradientTransform="matrix(-.0000002 .117199 .158218 .00000015 -5.807956 -11.291223)" gradientUnits="userSpaceOnUse" r="21.166656" xlink:href="#a"/><radialGradient id="d" cx="450.908936" cy="189.579361" gradientTransform="matrix(-.0000002 -.117199 .158218 -.00000015 -5.807956 95.392994)" gradientUnits="userSpaceOnUse" r="21.166656" xlink:href="#a"/><radialGradient id="e" cx="450.908936" cy="189.579361" gradientTransform="matrix(.0000002 .117199 -.158218 .00000015 53.437511 -11.291224)" gradientUnits="userSpaceOnUse" r="21.166656" xlink:href="#a"/><linearGradient id="f" gradientUnits="userSpaceOnUse" x1="23.814816" x2="23.814816" y1="42.05096580616" y2="12.28244429293"><stop offset="0" stop-color="#ffa726"/><stop offset="1" stop-color="#ffb74d"/></linearGradient><linearGradient id="g"><stop offset="0" stop-color="#ff7043"/><stop offset="1" stop-color="#ff8a65"/></linearGradient><linearGradient id="h" gradientUnits="userSpaceOnUse" x1="17.861112" x2="17.861112" xlink:href="#g" y1="42.05096580616" y2="4.34417266504"/><linearGradient id="i" gradientUnits="userSpaceOnUse" x1="-43.6604399999" x2="-44.13046830579" y1="48.004598" y2="48.78797835355"><stop offset="0" stop-color="#ffca28"/><stop offset="1" stop-color="#ffd54f"/></linearGradient><linearGradient id="j" gradientUnits="userSpaceOnUse" x1="33.7376145001" x2="33.7376145001" y1="42.0509015" y2="4.34415649995"><stop offset="0" stop-color="#ff8a65"/><stop offset="1" stop-color="#ffab91"/></linearGradient><linearGradient id="k" gradientUnits="userSpaceOnUse" x1="31.753088" x2="31.753088" xlink:href="#g" y1="42.05096580616" y2="4.34417266504"/><linearGradient id="l" gradientUnits="userSpaceOnUse" x1="15.876544" x2="15.876544" y1="42.05096580616" y2="4.34417266504"><stop offset="0" stop-color="#ec407a"/><stop offset="1" stop-color="#f06292"/></linearGradient><path d="m23.816406 42.050781h2.976563v-1.984375h-2.976563zm0 0" fill="url(#b)"/><path d="m23.816406 42.050781h-2.976562v1.984375h2.976562zm0 0" fill="url(#c)"/><path d="m23.816406 42.050781h-2.976562v-1.984375h2.976562zm0 0" fill="url(#d)"/><path d="m23.816406 42.050781h2.976563v1.984375h-2.976563zm0 0" fill="url(#e)"/><path d="m23.820312 12.777344c-.203124 0-.402343.0625-.570312.179687l-17.863281 12.402344c-.535157.375-.570313 1.15625-.066407 1.578125l17.859376 14.882812c.367187.308594.902343.308594 1.269531 0l17.863281-14.882812c.5-.421875.46875-1.203125-.070312-1.578125l-17.863282-12.402344c-.164062-.113281-.359375-.175781-.558594-.179687zm0 0" fill-opacity=".329412"/><path d="m23.816406 12.78125c-.203125 0-.402344.058594-.566406.175781l-17.863281 12.402344c-.535157.375-.570313 1.15625-.066407 1.578125l17.859376 14.882812c.183593.152344.410156.230469.636718.230469zm0 0" fill="url(#f)"/><path d="m11.410156 4.34375c-.546875.003906-.992187.445312-.992187.992188v20.839843c0 .511719.394531.941407.902343.984375 6.042969.503906 12.496094 6.953125 12.496094 12.90625v-27.496094l-11.847656-8.054687c-.164062-.113281-.359375-.171875-.558594-.171875zm0 0" fill="url(#h)"/><path d="m23.816406 12.78125c.199219 0 .398438.058594.5625.175781l17.863282 12.402344c.539062.375.570312 1.15625.070312 1.578125l-17.863281 14.882812c-.183594.152344-.410157.230469-.632813.230469zm0 0" fill="url(#i)"/><path d="m36.222656 4.34375c.546875.003906.988282.445312.988282.992188v20.839843c0 .511719-.390626.941407-.902344.984375-6.042969.503906-12.492188 6.953125-12.492188 12.90625v-27.496094l11.84375-8.054687c.164063-.113281.359375-.171875.5625-.171875zm0 0" fill="url(#j)"/><path d="m36.222656 4.34375c-.203125 0-.398437.058594-.5625.171875l-11.84375 8.054687v.210938c.199219 0 .398438.058594.5625.175781l12.832032 8.910157v-16.53125c0-.546876-.441407-.988282-.988282-.992188zm0 0" fill="url(#k)"/><path d="m11.410156 4.34375c-.546875.003906-.992187.445312-.992187.992188v16.53125l12.832031-8.910157c.164062-.117187.363281-.175781.566406-.175781v-.210938l-11.847656-8.054687c-.164062-.113281-.359375-.171875-.558594-.171875zm0 0" fill="url(#l)"/><path d="m5.03125 25.808594c-.148438.378906-.058594.839844.289062 1.128906l17.859376 14.882812c.183593.152344.410156.230469.636718.230469.222656 0 .449219-.078125.632813-.230469l17.863281-14.882812c.34375-.289062.4375-.75.285156-1.128906-.058594.144531-.152344.28125-.285156.394531l-17.863281 14.882813c-.183594.152343-.410157.230468-.632813.230468-.226562 0-.453125-.078125-.636718-.230468l-17.859376-14.882813c-.132812-.113281-.230468-.25-.289062-.394531zm0 0" fill-opacity=".235294"/><path d="m11.410156 4.34375c-.546875.003906-.992187.445312-.992187.992188v.703124c0-.546874.445312-.988281.992187-.992187.199219 0 .394532.058594.558594.171875l11.332031 7.707031c-.019531.007813-.035156.019531-.050781.03125l-12.832031 8.910157-5.03125 3.492187c-.390625.273437-.515625.757813-.359375 1.167969.066406-.179688.1875-.34375.359375-.464844l5.03125-3.492188v.007813l12.832031-8.910156c.164062-.117188.363281-.175781.566406-.175781.199219 0 .398438.058593.5625.175781l12.832032 8.910156v-.007813l5.03125 3.492188c.171874.121094.292968.285156.359374.464844.15625-.410156.03125-.894532-.359374-1.167969l-5.03125-3.492187-12.832032-8.910157c-.015625-.011719-.03125-.023437-.046875-.03125l11.328125-7.707031c.15625-.105469.335938-.164062.523438-.171875h.039062c.015625 0 .03125 0 .050782.003906.03125 0 .066406.003907.097656.007813.476562.074218.839844.484375.839844.980468v-.703124c0-.496094-.363282-.90625-.839844-.980469-.03125-.003907-.066406-.007813-.097656-.007813-.019532-.003906-.035157-.003906-.050782-.003906s-.027344 0-.039062 0c-.1875.007812-.367188.066406-.523438.171875l-11.84375 8.054687-11.847656-8.054687c-.164062-.113281-.359375-.171875-.558594-.171875zm0 0" fill="#fff" fill-opacity=".392157"/><path d="m11.40625 4.203125c-.621094.003906-1.128906.511719-1.128906 1.132813v16.457031l-4.96875 3.453125c-.613282.421875-.652344 1.320312-.078125 1.796875l17.859375 14.886719c.210937.171874.46875.261718.726562.261718.253906 0 .511719-.089844.722656-.261718l17.863282-14.886719c.570312-.476563.53125-1.375-.082032-1.796875l-4.96875-3.453125v-16.457031c0-.621094-.507812-1.128907-1.128906-1.132813-.230468 0-.453125.070313-.640625.195313l-11.765625 8.003906-11.769531-8.003906c-.1875-.125-.410156-.195313-.640625-.195313zm.003906.28125c.171875 0 .335938.050781.480469.148437l11.84375 8.054688c.050781.03125.113281.03125.160156 0l11.84375-8.054688c.144531-.097656.3125-.148437.480469-.148437.472656.003906.851562.382813.851562.851563v16.53125c0 .042968.023438.085937.058594.113281l5.03125 3.496093c.464844.320313.496094.988282.0625 1.351563l-17.863281 14.882813c-.15625.132812-.351563.199218-.542969.199218-.195312 0-.386718-.066406-.546875-.199218l-17.859375-14.882813c-.4375-.363281-.40625-1.03125.058594-1.351563l5.03125-3.496093c.039062-.027344.058594-.070313.058594-.113281v-16.53125c0-.46875.378906-.847657.851562-.851563zm0 0" fill="#212121"/></svg>

<?xml version="1.0" encoding="UTF-8"?>
<svg xmlns="http://www.w3.org/2000/svg" xmlns:xlink="http://www.w3.org/1999/xlink" width="48pt" height="48pt" viewBox="0 0 48 48" version="1.1">
<defs>
<radialGradient id="radial0" gradientUnits="userSpaceOnUse" cx="450.908936" cy="189.579361" fx="450.908936" fy="189.579361" r="21.166656" gradientTransform="matrix(0.000000195942,-0.117199,-0.158218,-0.000000152308,53.437513,95.392994)">
<stop offset="0" style="stop-color:rgb(0%,0%,0%);stop-opacity:0.313725;"/>
<stop offset="0.222222" style="stop-color:rgb(0%,0%,0%);stop-opacity:0.27451;"/>
<stop offset="1" style="stop-color:rgb(0%,0%,0%);stop-opacity:0;"/>
</radialGradient>
<radialGradient id="radial1" gradientUnits="userSpaceOnUse" cx="450.908936" cy="189.579361" fx="450.908936" fy="189.579361" r="21.166656" gradientTransform="matrix(-0.000000195942,0.117199,0.158218,0.000000152308,-5.807956,-11.291223)">
<stop offset="0" style="stop-color:rgb(0%,0%,0%);stop-opacity:0.313725;"/>
<stop offset="0.222222" style="stop-color:rgb(0%,0%,0%);stop-opacity:0.27451;"/>
<stop offset="1" style="stop-color:rgb(0%,0%,0%);stop-opacity:0;"/>
</radialGradient>
<radialGradient id="radial2" gradientUnits="userSpaceOnUse" cx="450.908936" cy="189.579361" fx="450.908936" fy="189.579361" r="21.166656" gradientTransform="matrix(-0.000000195942,-0.117199,0.158218,-0.000000152308,-5.807956,95.392994)">
<stop offset="0" style="stop-color:rgb(0%,0%,0%);stop-opacity:0.313725;"/>
<stop offset="0.222222" style="stop-color:rgb(0%,0%,0%);stop-opacity:0.27451;"/>
<stop offset="1" style="stop-color:rgb(0%,0%,0%);stop-opacity:0;"/>
</radialGradient>
<radialGradient id="radial3" gradientUnits="userSpaceOnUse" cx="450.908936" cy="189.579361" fx="450.908936" fy="189.579361" r="21.166656" gradientTransform="matrix(0.000000195942,0.117199,-0.158218,0.000000152308,53.437511,-11.291224)">
<stop offset="0" style="stop-color:rgb(0%,0%,0%);stop-opacity:0.313725;"/>
<stop offset="0.222222" style="stop-color:rgb(0%,0%,0%);stop-opacity:0.27451;"/>
<stop offset="1" style="stop-color:rgb(0%,0%,0%);stop-opacity:0;"/>
</radialGradient>
<linearGradient id="linear0" gradientUnits="userSpaceOnUse" x1="960" y1="1695.118164" x2="960" y2="495.118103" gradientTransform="matrix(0.0248071,0,0,0.0248071,0,0)">
<stop offset="0" style="stop-color:rgb(100%,65.490196%,14.901961%);stop-opacity:1;"/>
<stop offset="1" style="stop-color:rgb(100%,71.764706%,30.196078%);stop-opacity:1;"/>
</linearGradient>
<linearGradient id="linear1" gradientUnits="userSpaceOnUse" x1="720" y1="1695.118164" x2="720" y2="175.118118" gradientTransform="matrix(0.0248071,0,0,0.0248071,0,0)">
<stop offset="0" style="stop-color:rgb(100%,43.921569%,26.27451%);stop-opacity:1;"/>
<stop offset="1" style="stop-color:rgb(100%,54.117647%,39.607843%);stop-opacity:1;"/>
</linearGradient>
<linearGradient id="linear2" gradientUnits="userSpaceOnUse" x1="-465.666656" y1="297" x2="-470.67981" y2="305.355255" gradientTransform="matrix(0.093759,0,0,0.093759,0,20.158175)">
<stop offset="0" style="stop-color:rgb(100%,79.215686%,15.686275%);stop-opacity:1;"/>
<stop offset="1" style="stop-color:rgb(100%,83.529412%,30.980392%);stop-opacity:1;"/>
</linearGradient>
<linearGradient id="linear3" gradientUnits="userSpaceOnUse" x1="359.833344" y1="233.5" x2="359.833344" y2="-168.666672" gradientTransform="matrix(0.093759,0,0,0.093759,0,20.158175)">
<stop offset="0" style="stop-color:rgb(100%,54.117647%,39.607843%);stop-opacity:1;"/>
<stop offset="1" style="stop-color:rgb(100%,67.058824%,56.862745%);stop-opacity:1;"/>
</linearGradient>
<linearGradient id="linear4" gradientUnits="userSpaceOnUse" x1="1280" y1="1695.118164" x2="1280" y2="175.118118" gradientTransform="matrix(0.0248071,0,0,0.0248071,0,0)">
<stop offset="0" style="stop-color:rgb(100%,43.921569%,26.27451%);stop-opacity:1;"/>
<stop offset="1" style="stop-color:rgb(100%,54.117647%,39.607843%);stop-opacity:1;"/>
</linearGradient>
<linearGradient id="linear5" gradientUnits="userSpaceOnUse" x1="640" y1="1695.118164" x2="640" y2="175.118118" gradientTransform="matrix(0.0248071,0,0,0.0248071,0,0)">
<stop offset="0" style="stop-color:rgb(92.54902%,25.098039%,47.843137%);stop-opacity:1;"/>
<stop offset="1" style="stop-color:rgb(94.117647%,38.431373%,57.254902%);stop-opacity:1;"/>
</linearGradient>
</defs>
<g id="surface1">
<path style=" stroke:none;fill-rule:nonzero;fill:url(#radial0);" d="M 23.816406 42.050781 L 26.792969 42.050781 L 26.792969 40.066406 L 23.816406 40.066406 Z M 23.816406 42.050781 "/>
<path style=" stroke:none;fill-rule:nonzero;fill:url(#radial1);" d="M 23.816406 42.050781 L 20.839844 42.050781 L 20.839844 44.035156 L 23.816406 44.035156 Z M 23.816406 42.050781 "/>
<path style=" stroke:none;fill-rule:nonzero;fill:url(#radial2);" d="M 23.816406 42.050781 L 20.839844 42.050781 L 20.839844 40.066406 L 23.816406 40.066406 Z M 23.816406 42.050781 "/>
<path style=" stroke:none;fill-rule:nonzero;fill:url(#radial3);" d="M 23.816406 42.050781 L 26.792969 42.050781 L 26.792969 44.035156 L 23.816406 44.035156 Z M 23.816406 42.050781 "/>
<path style=" stroke:none;fill-rule:nonzero;fill:rgb(0%,0%,0%);fill-opacity:0.329412;" d="M 23.820312 12.777344 C 23.617188 12.777344 23.417969 12.839844 23.25 12.957031 L 5.386719 25.359375 C 4.851562 25.734375 4.816406 26.515625 5.320312 26.9375 L 23.179688 41.820312 C 23.546875 42.128906 24.082031 42.128906 24.449219 41.820312 L 42.3125 26.9375 C 42.8125 26.515625 42.78125 25.734375 42.242188 25.359375 L 24.378906 12.957031 C 24.214844 12.84375 24.019531 12.78125 23.820312 12.777344 Z M 23.820312 12.777344 "/>
<path style=" stroke:none;fill-rule:nonzero;fill:url(#linear0);" d="M 23.816406 12.78125 C 23.613281 12.78125 23.414062 12.839844 23.25 12.957031 L 5.386719 25.359375 C 4.851562 25.734375 4.816406 26.515625 5.320312 26.9375 L 23.179688 41.820312 C 23.363281 41.972656 23.589844 42.050781 23.816406 42.050781 Z M 23.816406 12.78125 "/>
<path style=" stroke:none;fill-rule:nonzero;fill:url(#linear1);" d="M 11.410156 4.34375 C 10.863281 4.347656 10.417969 4.789062 10.417969 5.335938 L 10.417969 26.175781 C 10.417969 26.6875 10.8125 27.117188 11.320312 27.160156 C 17.363281 27.664062 23.816406 34.113281 23.816406 40.066406 L 23.816406 12.570312 L 11.96875 4.515625 C 11.804688 4.402344 11.609375 4.34375 11.410156 4.34375 Z M 11.410156 4.34375 "/>
<path style=" stroke:none;fill-rule:nonzero;fill:url(#linear2);" d="M 23.816406 12.78125 C 24.015625 12.78125 24.214844 12.839844 24.378906 12.957031 L 42.242188 25.359375 C 42.78125 25.734375 42.8125 26.515625 42.3125 26.9375 L 24.449219 41.820312 C 24.265625 41.972656 24.039062 42.050781 23.816406 42.050781 Z M 23.816406 12.78125 "/>
<path style=" stroke:none;fill-rule:nonzero;fill:url(#linear3);" d="M 36.222656 4.34375 C 36.769531 4.347656 37.210938 4.789062 37.210938 5.335938 L 37.210938 26.175781 C 37.210938 26.6875 36.820312 27.117188 36.308594 27.160156 C 30.265625 27.664062 23.816406 34.113281 23.816406 40.066406 L 23.816406 12.570312 L 35.660156 4.515625 C 35.824219 4.402344 36.019531 4.34375 36.222656 4.34375 Z M 36.222656 4.34375 "/>
<path style=" stroke:none;fill-rule:nonzero;fill:url(#linear4);" d="M 36.222656 4.34375 C 36.019531 4.34375 35.824219 4.402344 35.660156 4.515625 L 23.816406 12.570312 L 23.816406 12.78125 C 24.015625 12.78125 24.214844 12.839844 24.378906 12.957031 L 37.210938 21.867188 L 37.210938 5.335938 C 37.210938 4.789062 36.769531 4.347656 36.222656 4.34375 Z M 36.222656 4.34375 "/>
<path style=" stroke:none;fill-rule:nonzero;fill:url(#linear5);" d="M 11.410156 4.34375 C 10.863281 4.347656 10.417969 4.789062 10.417969 5.335938 L 10.417969 21.867188 L 23.25 12.957031 C 23.414062 12.839844 23.613281 12.78125 23.816406 12.78125 L 23.816406 12.570312 L 11.96875 4.515625 C 11.804688 4.402344 11.609375 4.34375 11.410156 4.34375 Z M 11.410156 4.34375 "/>
<path style=" stroke:none;fill-rule:nonzero;fill:rgb(0%,0%,0%);fill-opacity:0.235294;" d="M 5.03125 25.808594 C 4.882812 26.1875 4.972656 26.648438 5.320312 26.9375 L 23.179688 41.820312 C 23.363281 41.972656 23.589844 42.050781 23.816406 42.050781 C 24.039062 42.050781 24.265625 41.972656 24.449219 41.820312 L 42.3125 26.9375 C 42.65625 26.648438 42.75 26.1875 42.597656 25.808594 C 42.539062 25.953125 42.445312 26.089844 42.3125 26.203125 L 24.449219 41.085938 C 24.265625 41.238281 24.039062 41.316406 23.816406 41.316406 C 23.589844 41.316406 23.363281 41.238281 23.179688 41.085938 L 5.320312 26.203125 C 5.1875 26.089844 5.089844 25.953125 5.03125 25.808594 Z M 5.03125 25.808594 "/>
<path style=" stroke:none;fill-rule:nonzero;fill:rgb(100%,100%,100%);fill-opacity:0.392157;" d="M 11.410156 4.34375 C 10.863281 4.347656 10.417969 4.789062 10.417969 5.335938 L 10.417969 6.039062 C 10.417969 5.492188 10.863281 5.050781 11.410156 5.046875 C 11.609375 5.046875 11.804688 5.105469 11.96875 5.21875 L 23.300781 12.925781 C 23.28125 12.933594 23.265625 12.945312 23.25 12.957031 L 10.417969 21.867188 L 5.386719 25.359375 C 4.996094 25.632812 4.871094 26.117188 5.027344 26.527344 C 5.09375 26.347656 5.214844 26.183594 5.386719 26.0625 L 10.417969 22.570312 L 10.417969 22.578125 L 23.25 13.667969 C 23.414062 13.550781 23.613281 13.492188 23.816406 13.492188 C 24.015625 13.492188 24.214844 13.550781 24.378906 13.667969 L 37.210938 22.578125 L 37.210938 22.570312 L 42.242188 26.0625 C 42.414062 26.183594 42.535156 26.347656 42.601562 26.527344 C 42.757812 26.117188 42.632812 25.632812 42.242188 25.359375 L 37.210938 21.867188 L 24.378906 12.957031 C 24.363281 12.945312 24.347656 12.933594 24.332031 12.925781 L 35.660156 5.21875 C 35.816406 5.113281 35.996094 5.054688 36.183594 5.046875 C 36.195312 5.046875 36.207031 5.046875 36.222656 5.046875 C 36.238281 5.046875 36.253906 5.046875 36.273438 5.050781 C 36.304688 5.050781 36.339844 5.054688 36.371094 5.058594 C 36.847656 5.132812 37.210938 5.542969 37.210938 6.039062 L 37.210938 5.335938 C 37.210938 4.839844 36.847656 4.429688 36.371094 4.355469 C 36.339844 4.351562 36.304688 4.347656 36.273438 4.347656 C 36.253906 4.34375 36.238281 4.34375 36.222656 4.34375 C 36.207031 4.34375 36.195312 4.34375 36.183594 4.34375 C 35.996094 4.351562 35.816406 4.410156 35.660156 4.515625 L 23.816406 12.570312 L 11.96875 4.515625 C 11.804688 4.402344 11.609375 4.34375 11.410156 4.34375 Z M 11.410156 4.34375 "/>
<path style=" stroke:none;fill-rule:nonzero;fill:rgb(12.941177%,12.941177%,12.941177%);fill-opacity:1;" d="M 11.40625 4.203125 C 10.785156 4.207031 10.277344 4.714844 10.277344 5.335938 L 10.277344 21.792969 L 5.308594 25.246094 C 4.695312 25.667969 4.65625 26.566406 5.230469 27.042969 L 23.089844 41.929688 C 23.300781 42.101562 23.558594 42.191406 23.816406 42.191406 C 24.070312 42.191406 24.328125 42.101562 24.539062 41.929688 L 42.402344 27.042969 C 42.972656 26.566406 42.933594 25.667969 42.320312 25.246094 L 37.351562 21.792969 L 37.351562 5.335938 C 37.351562 4.714844 36.84375 4.207031 36.222656 4.203125 C 35.992188 4.203125 35.769531 4.273438 35.582031 4.398438 L 23.816406 12.402344 L 12.046875 4.398438 C 11.859375 4.273438 11.636719 4.203125 11.40625 4.203125 Z M 11.410156 4.484375 C 11.582031 4.484375 11.746094 4.535156 11.890625 4.632812 L 23.734375 12.6875 C 23.785156 12.71875 23.847656 12.71875 23.894531 12.6875 L 35.738281 4.632812 C 35.882812 4.535156 36.050781 4.484375 36.21875 4.484375 C 36.691406 4.488281 37.070312 4.867188 37.070312 5.335938 L 37.070312 21.867188 C 37.070312 21.910156 37.09375 21.953125 37.128906 21.980469 L 42.160156 25.476562 C 42.625 25.796875 42.65625 26.464844 42.222656 26.828125 L 24.359375 41.710938 C 24.203125 41.84375 24.007812 41.910156 23.816406 41.910156 C 23.621094 41.910156 23.429688 41.84375 23.269531 41.710938 L 5.410156 26.828125 C 4.972656 26.464844 5.003906 25.796875 5.46875 25.476562 L 10.5 21.980469 C 10.539062 21.953125 10.558594 21.910156 10.558594 21.867188 L 10.558594 5.335938 C 10.558594 4.867188 10.9375 4.488281 11.410156 4.484375 Z M 11.410156 4.484375 "/>
</g>
</svg>
